X:1
T:Title
%%score { ( 1 3 ) | ( 2 4 ) }
L:1/8
M:12/8
K:Ab
V:1 treble nm="Grand Piano"
V:3 treble 
V:2 bass 
V:4 bass 
V:1
 z6 z2[Q:1/4=113] E c2 B | A6- A2[K:treble] z z3 | E6- E2 z z3 | G6- G2 z z3 | c6- c2 z z3 | %5
 A6- A2[K:treble] z z3 | E6- E2 z z3 | G6- G2 z z3 |[M:4/4] A8[K:bass] | %9
[M:6/8][K:treble] B [GB]2 B c2 | B [GB]2 =A _A2 | A [A=d]2 A d2 |[M:5/8] c [_Gc]2 =AB- |[M:1/8] B | %14
 B |[M:3/4] [GB]2 B c2 B | [GB]2 =A _A2 A | [A=d]2 A d2 B | [Ge]2 [Ae] [Ge]3 | %19
[M:12/8] z3 z A2- A6[K:bass] | z3 z E2- E6 | z3 z G2- G6 | z3 z c2- c6 | z3 z A2- A6[K:bass] | %24
 z3 z E2- E6 | z3 z G2- G6 |[M:8/4] z4 A8[K:bass] z4 |] %27
V:2
 z6 z2 C E2 D | C6- C2 z z3 | C6- C2[K:treble] z z3 | E6[K:bass] z6[K:treble] | A6- A2 z z3 | %5
 C6- C2 z z3 | C6- C2[K:treble] z z3 | E6[K:bass] z6[K:treble] |[M:4/4] C8[K:bass] | %9
[M:6/8] G E,,2[K:treble] G [G,B,EA]2 | G[K:bass] B,,2[K:treble] _G [CF]2 | %11
 F[K:bass] B,,2[K:treble] F [A,B,=DA]2 |[M:5/8] A[K:bass] [E,,E,]2[K:treble] _G[G,B,E=G]- | %13
[M:1/8] [G,B,EG] | G |[M:3/4][K:bass] [E,,E,]2[K:treble] G [G,B,EA]2 G | %16
 B,,2[K:treble] _G [A,B,=DF]2 F | B,,2[K:treble] F [A,B,=DA]2 A | E,,2 [E,C] [E,D]3 | %19
[M:12/8] z3 z C2- C6 | z3 z =C2- C6 | z3 z[K:bass] E2- E3- E z z | z3 z A2- A6[K:bass] | %23
 z3 z C2- C6 | z3 z =C2- C6 | z3 z[K:bass] E2- E3- E z z |[M:8/4][K:treble] z4 C8[K:bass] z4 |] %27
V:3
 x12 | z2 E, E,2 E, E,2[K:treble] E G2 F | z2 A, A,2 A, A,2 c B2 A | z2 E, G,2 B, E2 f e2 d | %4
 z2 E E2 E E2 E c2 B | z2 E, E,2 E, E,2[K:treble] E G2 F | z2 A, A,2 A, A,2 c B2 A | %7
 z2 E, G,2 B, E2 d c2 B |[M:4/4] z2[K:bass] E,E,- E,E, E,2 |[M:6/8][K:treble] x6 | x6 | x6 | %12
[M:5/8] x5 |[M:1/8] x | x |[M:3/4] x6 | x6 | x6 | x6 |[M:12/8] E c2 .B3 E,[K:bass] E,2 E, E,2 | %20
 E G2 .F3 A, A,2 A, A,2 | c B2 .A3 E, G,2 B, E2 | f e2 .d3 E E2 E E2 | %23
 E c2 .B3 E,[K:bass] E,2 E, E,2 | E G2 .F3 A, A,2 A, A,2 | c B2 .A3 E, G,2 B, E2 | %26
[M:8/4] d c2 B z2[K:bass] E,E,-E,E, E,2 z4 |] %27
V:4
 x12 | z2 A,, A,,2 A,, A,,2 C _C2 C | z2 A,, A,,2 A,, A,,2[K:treble] A G2 F | %3
 z3[K:bass] E,2 E, E,2[K:treble] d c2 B | z2 A, A,2 A, A,2 C E2 D | z2 A,, A,,2 A,, A,,2 C _C2 C | %6
 z2 A,, A,,2 A,, A,,2[K:treble] A G2 F | z3[K:bass] E,2 E, E,2[K:treble] F E2 D | %8
[M:4/4] z2[K:bass] A,,A,,- A,,A,, A,,2 |[M:6/8] x3[K:treble] x3 | x[K:bass] x2[K:treble] x3 | %11
 x[K:bass] x2[K:treble] x3 |[M:5/8] x[K:bass] x2[K:treble] x2 |[M:1/8] x | x | %15
[M:3/4][K:bass] x2[K:treble] x4 | x2[K:treble] x4 | x2[K:treble] x4 | x6 | %19
[M:12/8] C E2 .D3 A,, A,,2 A,, A,,2 | C _C2 .C3 A,, A,,2 A,, A,,2 | A G2 .F3[K:bass] z E,2 E, E,2 | %22
 d c2 .B3 A,[K:bass] A,2 A, A,2 | C E2 .D3 A,, A,,2 A,, A,,2 | C _C2 .C3 A,, A,,2 A,, A,,2 | %25
 A G2 .F3[K:bass] z E,2 E, E,2 |[M:8/4][K:treble] F E2 D z2[K:bass] A,,A,,-A,,A,, A,,2 z4 |] %27

